packages/assets/static/images/icons/school-bus.svg

<svg width="24" height="24" viewBox="0 0 24 24" xmlns="http://www.w3.org/2000/svg" fill="currentColor" aria-hidden="true"> <path d="M9.54304 15.4516C10.1644 15.4516 10.668 14.948 10.668 14.3266C10.668 13.7053 10.1644 13.2016 9.54304 13.2016C8.92172 13.2016 8.41804 13.7053 8.41804 14.3266C8.41804 14.948 8.92172 15.4516 9.54304 15.4516Z"/> <path d="M19.6202 15.4516C20.2415 15.4516 20.7452 14.948 20.7452 14.3266C20.7452 13.7053 20.2415 13.2016 19.6202 13.2016C18.9989 13.2016 18.4952 13.7053 18.4952 14.3266C18.4952 14.948 18.9989 15.4516 19.6202 15.4516Z"/> <path d="M4.09148 8.91539H2.63085C2.49304 8.91539 2.35991 8.9707 2.26241 9.0682L1.22929 10.1013C1.13179 10.1988 1.07648 10.332 1.07648 10.4698V11.9304C1.07648 12.0682 1.13179 12.2013 1.22929 12.2988L2.26241 13.332C2.35991 13.4295 2.49304 13.4848 2.63085 13.4848H4.09148C4.22929 13.4848 4.36241 13.4295 4.45991 13.332L5.49304 12.2988C5.59054 12.2013 5.64585 12.0682 5.64585 11.9304V10.4698C5.64585 10.332 5.59054 10.1988 5.49304 10.1013L4.45991 9.0682C4.36241 8.9707 4.22929 8.91539 4.09148 8.91539Z"/> <path d="M22.924 4.89258C22.924 3.23789 21.5777 1.89258 19.924 1.89258H9.42398C7.77023 1.89258 6.42398 3.23789 6.42398 4.89258V11.6013C6.42398 11.6013 6.42398 11.6051 6.42398 11.607V18.222C6.41554 18.266 6.41085 18.311 6.41085 18.357V20.607C6.41085 21.4338 7.08398 22.107 7.91085 22.107H10.1609C10.9877 22.107 11.6609 21.4338 11.6609 20.607V19.107H17.6609V20.607C17.6609 21.4338 18.334 22.107 19.1609 22.107H21.4109C22.2377 22.107 22.9109 21.4338 22.9109 20.607V18.492C22.9193 18.4479 22.924 18.4029 22.924 18.357V4.89258ZM7.92398 17.6079V12.222L11.0384 11.5929C11.1415 11.5723 11.238 11.5301 11.3243 11.4691L12.1709 10.8682C12.3762 10.7229 12.6171 10.646 12.8693 10.646H16.2799C16.549 10.646 16.8134 10.737 17.0243 10.9029L17.719 11.4476C17.8137 11.5216 17.9252 11.5723 18.0434 11.5948L21.424 12.2304V17.6079H7.92398ZM11.7415 4.89258L11.4855 3.39258H17.9421L17.6862 4.89258H11.7415ZM21.424 6.39258V10.7032L18.4999 10.1538L17.9496 9.72258C17.4752 9.35039 16.8818 9.14508 16.279 9.14508H12.8684C12.304 9.14508 11.7621 9.31758 11.3018 9.64477L10.5855 10.1538L7.92398 10.691V6.39258H21.424ZM21.424 4.89258H19.2077L19.4637 3.39258H19.924C20.7509 3.39258 21.424 4.0657 21.424 4.89258ZM9.42398 3.39258H9.96398L10.2199 4.89258H7.92304C7.92304 4.0657 8.5971 3.39258 9.42398 3.39258ZM10.1609 20.6079H7.91085V19.1079H10.1609V20.6079ZM19.1609 20.6079V19.1079H21.4109V20.6079H19.1609Z"/> <path d="M17.1902 12.3663H12.1568C11.7424 12.3663 11.4068 12.702 11.4068 13.1163C11.4068 13.5307 11.7424 13.8663 12.1568 13.8663H17.1902C17.6046 13.8663 17.9402 13.5307 17.9402 13.1163C17.9402 12.702 17.6046 12.3663 17.1902 12.3663Z"/> <path d="M17.1902 14.8601H12.1568C11.7424 14.8601 11.4068 15.1957 11.4068 15.6101C11.4068 16.0245 11.7424 16.3601 12.1568 16.3601H17.1902C17.6046 16.3601 17.9402 16.0245 17.9402 15.6101C17.9402 15.1957 17.6046 14.8601 17.1902 14.8601Z"/> </svg>

<svg viewBox="0 0 24 24" xmlns="http://www.w3.org/2000/svg" aria-hidden="true" fill="currentColor"><path d="M9.543 15.452a1.125 1.125 0 1 0 0-2.25 1.125 1.125 0 0 0 0 2.25m10.077 0a1.125 1.125 0 1 0 0-2.25 1.125 1.125 0 0 0 0 2.25M4.091 8.915h-1.46a.52.52 0 0 0-.369.153L1.23 10.101a.52.52 0 0 0-.153.369v1.46c0 .138.056.271.153.369l1.033 1.033c.098.098.231.153.369.153h1.46c.138 0 .271-.055.369-.153l1.033-1.033a.52.52 0 0 0 .153-.369v-1.46a.52.52 0 0 0-.153-.369L4.46 9.068a.52.52 0 0 0-.369-.153"/><path d="M22.924 4.893c0-1.655-1.346-3-3-3h-10.5c-1.654 0-3 1.345-3 3v13.329a1 1 0 0 0-.013.135v2.25c0 .827.673 1.5 1.5 1.5h2.25c.827 0 1.5-.673 1.5-1.5v-1.5h6v1.5c0 .827.673 1.5 1.5 1.5h2.25c.827 0 1.5-.673 1.5-1.5v-2.115a1 1 0 0 0 .013-.135zm-15 12.715v-5.386l3.114-.63q.157-.03.286-.123l.847-.6c.205-.146.446-.223.698-.223h3.41c.27 0 .534.091.745.257l.695.545a.76.76 0 0 0 .324.147l3.381.635v5.378zm3.818-12.715-.257-1.5h6.457l-.256 1.5zm9.682 1.5v4.31l-2.924-.55-.55-.43a2.72 2.72 0 0 0-1.671-.578h-3.41a2.7 2.7 0 0 0-1.567.5l-.716.509-2.662.537V6.393zm0-1.5h-2.216l.256-1.5h.46c.827 0 1.5.673 1.5 1.5m-12-1.5h.54l.256 1.5H7.923c0-.827.674-1.5 1.501-1.5m.737 17.215H7.91v-1.5h2.25zm9 0v-1.5h2.25v1.5z"/><path d="M17.19 12.366h-5.033a.75.75 0 1 0 0 1.5h5.033a.75.75 0 1 0 0-1.5m0 2.494h-5.033a.75.75 0 1 0 0 1.5h5.033a.75.75 0 1 0 0-1.5"/></svg>
